images/icons/phone-icon.svg

<svg width="20" height="20" viewBox="0 0 20 20" fill="none" xmlns="http://www.w3.org/2000/svg">
<path fill-rule="evenodd" clip-rule="evenodd" d="M8.8614 6.3379C9.3795 5.63969 9.56529 4.90384 8.97932 4.25431C7.66437 2.41433 6.78003 1.27649 6.22533 0.728537C5.17077 -0.313196 3.436 -0.172285 2.52267 0.727647C2.03212 1.21101 1.86604 1.377 1.36235 1.88861C-1.4433 4.69577 0.267729 10.63 4.81627 15.183C9.36378 19.735 15.2975 21.4469 18.109 18.6338C18.5738 18.1858 18.9673 17.792 19.2777 17.464C20.1727 16.518 20.3086 14.8597 19.2718 13.7824C18.7402 13.2301 17.6552 12.3885 15.7378 11.0169C15.1506 10.4918 14.4543 10.6056 13.8159 11.0244C13.5089 11.2259 13.2854 11.4297 12.8634 11.8521L12.0972 12.6187C11.9963 12.7197 10.6259 12.0334 9.2956 10.7018C7.9646 9.36953 7.27878 7.99906 7.37923 7.89862L8.146 7.13142C8.27988 6.99742 8.34388 6.93254 8.42596 6.84627C8.59697 6.66654 8.73856 6.50344 8.8614 6.3379ZM13.5106 14.0329L14.277 13.2661C14.5092 13.0337 14.6597 12.8907 14.7822 12.7922C16.4618 13.9984 17.4346 14.7568 17.8319 15.1697C18.0705 15.4176 18.0334 15.8699 17.8261 16.089C17.5391 16.3924 17.1662 16.7655 16.7086 17.2068C14.8906 19.0256 10.1008 17.6437 6.23001 13.7691C2.35803 9.89332 0.976766 5.10279 2.78108 3.29748C3.28274 2.78798 3.44168 2.62912 3.92524 2.15265C4.10654 1.97401 4.6004 1.93389 4.82096 2.15176C5.24802 2.57364 6.04022 3.58799 7.20559 5.21133C7.14526 5.28623 7.06991 5.37087 6.97821 5.46724C6.91091 5.53798 6.85484 5.59481 6.73226 5.71751L5.96624 6.48396C4.66309 7.787 5.7729 10.0047 7.88186 12.1157C9.98936 14.2253 12.2079 15.3364 13.5106 14.0329ZM11.6599 0.0694407C15.9832 0.593479 19.4113 4.02153 19.9353 8.34485L17.9599 8.67409C17.5784 5.19172 14.813 2.4263 11.3307 2.04488L11.6599 0.0694407V0.0694407ZM11.0011 4.02202C13.6427 4.25828 15.7465 6.36209 15.9827 9.00361L14.001 9.33391C13.9169 7.53302 12.4717 6.08789 10.6708 6.0038L11.0011 4.02202V4.02202Z" fill="black"/>
</svg>

<svg width="20" height="20" viewBox="0 0 20 20" fill="none" xmlns="http://www.w3.org/2000/svg"><path fill-rule="evenodd" clip-rule="evenodd" d="M8.861 6.338c.518-.698.704-1.434.118-2.084C7.664 2.414 6.78 1.276 6.225.73 5.171-.313 3.436-.172 2.523.728c-.49.483-.657.649-1.16 1.16C-1.444 4.697.267 10.63 4.815 15.184c4.548 4.552 10.482 6.264 13.293 3.45.465-.447.858-.841 1.169-1.169.895-.946 1.03-2.604-.006-3.682-.532-.552-1.617-1.393-3.534-2.765-.587-.525-1.284-.411-1.922.007-.307.202-.53.406-.953.828l-.766.767c-.1.1-1.471-.586-2.801-1.917C7.965 9.37 7.279 7.999 7.379 7.899l.767-.768c.134-.134.198-.198.28-.285.171-.18.313-.343.435-.508Zm4.65 7.695.766-.767c.232-.232.383-.375.505-.474 1.68 1.206 2.653 1.965 3.05 2.378.238.248.201.7-.006.919-.287.303-.66.677-1.117 1.118-1.818 1.819-6.608.437-10.479-3.438C2.358 9.893.977 5.103 2.781 3.297c.502-.509.66-.668 1.144-1.144.182-.179.675-.22.896-.001.427.422 1.22 1.436 2.385 3.06-.06.074-.136.159-.228.255-.067.071-.123.128-.246.25l-.766.767c-1.303 1.303-.193 3.52 1.916 5.632 2.107 2.11 4.326 3.22 5.629 1.917ZM11.66.069a9.505 9.505 0 0 1 8.275 8.276l-1.975.33a7.503 7.503 0 0 0-6.63-6.63l.33-1.976ZM11 4.022a5.501 5.501 0 0 1 4.982 4.982L14 9.334a3.5 3.5 0 0 0-3.33-3.33L11 4.022Z" fill="#000"/></svg>
